markets/INJ.svg

<svg width="42" height="42" viewBox="0 0 42 42" fill="none" xmlns="http://www.w3.org/2000/svg">
<circle cx="21" cy="21" r="21" fill="#F5F5FF"/>
<path d="M6.46151 8.65473C6.70263 8.35783 6.9534 8.07051 7.20416 7.78319C7.21381 7.77361 7.24274 7.76403 7.25239 7.75446C7.27168 7.72572 7.31026 7.70657 7.33919 7.67784L7.35848 7.64911C7.53209 7.48629 7.72498 7.3139 7.93717 7.15108C8.70876 6.57644 9.49963 6.13588 10.3387 5.83898C13.0393 4.9004 16.0388 5.47504 18.3922 7.68742C21.681 10.7426 21.3821 15.675 18.7587 18.9504C15.4408 23.8349 9.7504 30.6444 17.6302 36.7452C19.048 37.8466 20.0993 38.7469 24.5648 40.0302C21.6425 40.5666 18.9323 40.3942 15.9231 39.6376C13.7916 38.4404 10.4352 35.8832 9.29709 32.4258C7.57067 27.187 12.3352 19.3431 14.6307 16.3262C17.7845 12.1505 12.6824 7.62995 8.9113 12.6772C6.96304 15.311 3.51984 22.7526 4.7158 28.2788C5.41023 31.4106 6.34577 33.69 10.0397 36.8314C9.35496 36.4291 8.68947 35.979 8.04326 35.4618C-0.530988 27.5222 0.46243 15.244 6.46151 8.65473Z" fill="url(#paint0_linear_7277_57794)"/>
<path d="M35.6854 33.7283C35.4442 34.0252 35.1935 34.3125 34.9427 34.5999C34.9331 34.6094 34.9041 34.619 34.8945 34.6286C34.8752 34.6573 34.8366 34.6765 34.8077 34.7052L34.7884 34.7339C34.6148 34.8968 34.4219 35.0692 34.2097 35.2224C33.4381 35.797 32.6472 36.2376 31.8081 36.5345C29.1076 37.4731 26.1081 36.8984 23.7547 34.6861C20.4658 31.6309 20.7648 26.6985 23.3882 23.4231C26.706 18.5386 32.3965 11.7291 24.5167 5.62829C23.0989 4.52689 22.0476 3.62662 17.582 2.34325C20.5044 1.80692 23.2146 1.97931 26.2238 2.73592C28.3553 3.93309 31.7117 6.49025 32.8498 9.94769C34.5762 15.1865 29.8117 23.0304 27.5162 26.0473C24.3623 30.223 29.4645 34.7435 33.2356 29.6962C35.2031 27.0625 38.6463 19.6208 37.4504 14.0947C36.7559 10.9629 35.8204 8.68347 32.1264 5.54209C32.8112 5.94434 33.4767 6.39448 34.1229 6.91166C42.6779 14.8609 41.6845 27.1391 35.6854 33.7283Z" fill="url(#paint1_linear_7277_57794)"/>
<defs>
<linearGradient id="paint0_linear_7277_57794" x1="1.78377" y1="22.8807" x2="40.3631" y2="22.8807" gradientUnits="userSpaceOnUse">
<stop stop-color="#0082FA"/>
<stop offset="1" stop-color="#00F2FE"/>
</linearGradient>
<linearGradient id="paint1_linear_7277_57794" x1="1.78381" y1="19.5024" x2="40.3631" y2="19.5024" gradientUnits="userSpaceOnUse">
<stop stop-color="#0082FA"/>
<stop offset="1" stop-color="#00F2FE"/>
</linearGradient>
</defs>
</svg>

<svg xmlns="http://www.w3.org/2000/svg" width="42" height="42" fill="none"><circle cx="21" cy="21" r="21" fill="#F5F5FF"/><path fill="url(#a)" d="M6.462 8.655c.24-.297.491-.584.742-.872.01-.01.039-.019.048-.029.02-.028.058-.047.087-.076l.02-.029a7.72 7.72 0 0 1 .578-.498C8.71 6.576 9.5 6.136 10.34 5.84c2.7-.939 5.7-.364 8.053 1.848 3.289 3.056 2.99 7.988.367 11.263-3.318 4.885-9.009 11.694-1.129 17.795 1.418 1.102 2.47 2.002 6.935 3.285-2.923.537-5.633.364-8.642-.392-2.131-1.198-5.488-3.755-6.626-7.212-1.726-5.239 3.038-13.083 5.334-16.1 3.154-4.176-1.949-8.696-5.72-3.649C6.963 15.311 3.52 22.753 4.716 28.28c.694 3.132 1.63 5.411 5.324 8.552a16.785 16.785 0 0 1-1.997-1.37C-.53 27.523.463 15.245 6.462 8.656Z"/><path fill="url(#b)" d="M35.685 33.728c-.24.297-.492.584-.742.872-.01.01-.039.019-.048.029-.02.028-.058.047-.087.076l-.02.029a5.92 5.92 0 0 1-.578.488c-.772.575-1.563 1.016-2.402 1.313-2.7.938-5.7.363-8.053-1.849-3.29-3.055-2.99-7.988-.367-11.263 3.318-4.884 9.009-11.694 1.129-17.795-1.418-1.101-2.47-2.001-6.935-3.285 2.922-.536 5.633-.364 8.642.393 2.131 1.197 5.488 3.754 6.626 7.212 1.726 5.239-3.038 13.082-5.334 16.1-3.154 4.175 1.949 8.695 5.72 3.648 1.967-2.634 5.41-10.075 4.214-15.601-.694-3.132-1.63-5.412-5.324-8.553.685.402 1.35.852 1.997 1.37 8.555 7.949 7.562 20.227 1.562 26.816Z"/><defs><linearGradient id="a" x1="1.784" x2="40.363" y1="22.881" y2="22.881" gradientUnits="userSpaceOnUse"><stop stop-color="#0082FA"/><stop offset="1" stop-color="#00F2FE"/></linearGradient><linearGradient id="b" x1="1.784" x2="40.363" y1="19.502" y2="19.502" gradientUnits="userSpaceOnUse"><stop stop-color="#0082FA"/><stop offset="1" stop-color="#00F2FE"/></linearGradient></defs></svg>
